data/playwrite-tz.svg

<svg width="98.644" height="27.048" viewBox="0 0 98.644 27.048" xmlns="http://www.w3.org/2000/svg"><path transform="translate(0 19.992) scale(.014 -.014)" d="m116-14q-47 0-39 30l274 954q4 14 16 21t34 7h180q101 0 168.5-24t101.5-72.5 34-123.5q0-84-31-147.5t-89-107.5-137.5-72-175.5-40q-43-6-89-8.5t-88-3.5l-110-385q-5-14-15.5-21t-33.5-7zm182 493q26 0 56 1.5t60.5 4.5 58.5 6q102 17 174 52t110 91 38 134q0 54-24 86.5t-73.5 48-128.5 15.5h-145z"/><path transform="translate(10.878 19.992) scale(.014 -.014)" d="m-138-17q-19 0-25.5 11.5t-3 26 15.5 26 29 11.5q32 0 70.5 19t82 53 88.5 80 89.5 101 85 114 75 120 60.5 120 40.5 112.5 14.5 98.5q0 15 13 22.5t30.5 7.5 30.5-7.5 13-22.5q0-47-16.5-104.5t-46-121-69-130-86.5-132-98.5-125.5-104-111-104-89-98.5-59-86-21zm315 0q-41 0-62 15t-28 39.5-3 55 13 62.5l197 692q26 90 66.5 131t99.5 41q35 0 59.5-17.5t38-49.5 13.5-76q0-19-13-28t-30.5-9-30.5 9-13 28-4 32.5-12 20.5-21 7-24.5-9.5-22.5-31-22-60.5l-206-722q-4-13-5-25.5t3.5-20.5 18.5-8q13 0 25 6.5t21.5 17.5 17.5 22q6 8 16 11t25-7q16-10 16.5-20.5t-4.5-21.5q-10-17-28.5-37t-43.5-33.5-57-13.5z"/><path transform="translate(16.394 19.992) scale(.014 -.014)" d="m187-17q-44 0-76 20.5t-49.5 59-17.5 92.5q0 46 12 96t37 97.5 62 86 87.5 61.5 113.5 23q33 0 65.5-10t60.5-27l1 4q5 18 15 23.5t29 5.5q30 0 38.5-9t3.5-29l-106-364q-3-13-4.5-25.5t3.5-20.5 19-8q13 0 24.5 6.5t21 17.5 17.5 22q7 8 17 11t24-7q16-10 17.5-20.5t-4.5-21.5q-10-17-28.5-37t-43.5-33.5-57-13.5q-29 0-48 9t-29 23.5-13.5 33.5-2.5 39q1 3 1 6t0 6q-33-45-67-70.5t-65.5-36-57.5-10.5zm-53 182q0-33 9-55.5t27-34.5 44-12q34 0 68 22t68 63.5 65 100.5l47 166q-28 14-53 19.5t-51 5.5q-48 0-84.5-18t-63-48-43.5-66.5-25-73.5-8-69z"/><path transform="translate(25.102 19.992) scale(.014 -.014)" d="m434-10q18 12 37 22.5t36.5 20.5 34 18 30.5 14q15 7 24 0t12.5-20.5-0.5-27-16-19.5q-18-9-38.5-20.5t-42-23.5-43-25-42.5-25zm-277-509q-60 0-96 33.5t-36 86.5q0 43 17.5 81t49 73.5 76 70 99.5 68.5q19 11 36.5 22t36 22 36.5 22l39 139q-22-28-46-50t-49-36.5-51-22-52-7.5q-53 0-85.5 23.5t-41 67.5 8.5 105l62 217q6 22 0 33.5t-23 11.5q-14 0-27-8.5t-26-25.5-30-45q-8-13-16-18.5t-27-2.5q-19 5-23.5 17t2.5 28q16 37 39 66.5t53 46.5 65 17q34 0 55.5-11.5t32.5-32 11.5-48.5-8.5-60l-54-190q-10-38-8-63t18.5-37 50.5-12q27 0 56 14.5t58.5 42 56 65 48.5 83.5l61 217q6 19 15.5 25t29.5 6q30 0 38.5-9t2.5-29l-211-729q-21-72-45-122.5t-53.5-82.5-65.5-47-80-15zm13 77q31 0 58 21.5t49.5 64.5 38.5 106l31 110q-11-6-21-12.5t-19.5-12.5-18.5-12q-41-28-73.5-54.5t-55-51.5-34-50.5-11.5-52.5q0-18 6.5-30.5t19.5-19 30-6.5z"/><path transform="translate(34.412 19.992) scale(.014 -.014)" d="m191-19q-47 0-75 17.5t-40 47-11.5 65.5 11.5 73l86 300q6 18 15 24.5t30 6.5q30 0 38.5-9t2.5-28l-85-298q-8-28-10-55.5t11-46 48-18.5q21 0 43.5 10t43.5 29 40 46 34 62l80 277q6 18 15 24.5t30 6.5q31 0 38.5-9t2.5-27l-69-248q-8-31-15.5-61.5t-7.5-55 14-39 48-14.5q36 0 67 18.5t55.5 50 42.5 70 27.5 79.5 9.5 79q0 19-1.5 37t-4.5 35.5-9 32.5q-4 19 0 31t15 18.5 28 6.5 27-11 16-36q6-16 9.5-34t5.5-38 2-41q0-45-13-96t-38.5-101-62-91-84-65.5-105.5-24.5q-43 0-71.5 13t-43 35.5-19.5 51.5q-21-32-47-54.5t-57.5-34-66.5-11.5z"/><path transform="translate(46.424 19.992) scale(.014 -.014)" d="m-139-17q-19 0-25.5 11.5t-3.5 26 15 26 31 11.5q34 0 68.5 23.5t69.5 71 70.5 119.5 70.5 168l58-24q-44-121-85-204t-83-133.5-87.5-73-98.5-22.5zm553 0q-37 0-58.5 12t-30 32-7.5 45 8 53q7 24 18.5 55t25 65.5 26.5 68.5 20 64-1 40.5-26 10.5q-25 0-56.5-10t-64.5-19.5-62-9.5q-21 0-36 15t-23 38-8 47 7.5 45 22.5 35 38 14q25 0 36-15t11-35q0-15-5-32.5t-14-32.5q17 0 47.5 11t67.5 22 72 11q30 0 52-13.5t30-44.5-4-83q-7-28-19.5-62t-26.5-70-27-70-22-64q-6-25-0.5-36t21.5-11q13 0 24.5 6.5t21.5 17.5 17 22q7 8 17 11t24-7q16-10 17-20.5t-4-21.5q-10-17-28.5-37t-43.5-33.5-57-13.5z"/><path transform="translate(54.376 19.992) scale(.014 -.014)" d="m148-17q-63 0-84.5 43t0.5 119l96 339q6 19 15.5 25t29.5 6q30 0 38.5-9t2.5-29l-103-360q-8-29-3.5-43.5t22.5-14.5q13 0 24.5 6.5t21 17.5 17.5 22q7 8 17 11t24-7q16-10 17-20.5t-5-21.5q-12-21-31.5-40.5t-44.5-31.5-54-12zm112 686q-21 0-35.5 13.5t-14.5 38.5q0 28 17.5 51t53.5 23q21 0 35.5-13t14.5-39q0-28-17-51t-54-23z"/><path transform="translate(58.576 19.992) scale(.014 -.014)" d="m175-17q-52 0-75 24.5t-23.5 65 13.5 91.5l72 256h-78q-12 0-16 10t0 30q6 20 15 30t21 10h81l57 199q6 19 15.5 25t29.5 6q30 0 39-9t3-29l-55-192h126q11 0 15.5-9.5t-0.5-30.5q-5-19-14.5-29.5t-21.5-10.5h-128l-84-292q-10-35-4-52t27-17q29 0 52 19t40 40q7 9 17.5 12t25.5-8q16-9 17-19.5t-5-20.5q-13-22-35-45t-53.5-38.5-73.5-15.5z"/><path transform="translate(64.008 19.992) scale(.014 -.014)" d="m254-18q-36 0-67.5 12.5t-57.5 35-44.5 53.5-28.5 69-10 80q0 38 9 78t27.5 77.5 45.5 67 63.5 47 82.5 17.5q41 0 69-16t42.5-43.5 14.5-62.5q0-55-26-106t-68-96-91-81q-53-39-113-68.5t-119.5-46-111.5-16.5q-14 0-20.5 11.5t-4 26 14 26 32.5 11.5q44 0 93 15.5t97 42 90 59.5q34 27 65.5 60.5t51.5 70.5 20 73q0 30-13 45t-40 15q-30 0-52.5-20t-38-51-23.5-66-8-66q0-38 10.5-70t29.5-55.5 43-36 51-12.5q25 0 49 9.5t47 26.5 44 36q14 13 27 11t25-13q13-12 15-25.5t-11-26.5q-32-35-67-57t-71-31.5-73-9.5z"/><path transform="translate(74.424 19.992) scale(.014 -.014)" d="m252-17q-39 0-72 17t-55.5 44.5-32.5 56.5q-7 19-2.5 31.5t21.5 19.5q18 7 29 2.5t22-21.5q12-22 27-36.5t32-21.5 37-7q38 0 63.5 29.5t47.5 106.5l205 714h-133q-54 0-92-12t-63.5-35.5-38.5-61.5q-8-18-21-23t-35-1q-13 3-18.5 12.5t-0.5 27.5q10 39 34 70.5t59 54.5 81.5 35.5 101.5 12.5h536q15 0 18.5-8.5t-3.5-31.5q-6-22-14.5-31t-23.5-9h-298l-203-710q-21-72-49-122.5t-67-76.5-92-26z"/><path transform="translate(85.624 19.992) scale(.014 -.014)" d="m568-17q-43 0-86.5 8.5t-87 19.5-84.5 19.5-79 7.5q-31 0-58-5.5t-52.5-16-53.5-23.5q-16-8-31.5-8t-24.5 13q-9 12-6.5 22t17.5 25l783 843q-10-2-20.5-3t-23.5-1q-33 0-64.5 7.5t-62.5 16.5-62.5 16.5-65.5 7.5q-33 0-65-10.5t-63-30-60-47.5q-15-15-28.5-15t-27.5 14q-15 14-14.5 27t15.5 29q38 37 76 63t80 40 92 14q40 0 75-7.5t67.5-18 65-18 68.5-7.5q42 0 74 7.5t66 24.5q13 7 24 6.5t21-11.5q12-11 10.5-22.5t-22.5-33.5l-761-822q15 4 31.5 6t34.5 2q40 0 79.5-8t79.5-19 79.5-20 78.5-9q49 0 88 19t71 55.5 58 88.5q7 13 19.5 16.5t30.5-4.5q20-8 25-20t-3-27q-34-70-77.5-117t-98.5-70.5-127-23.5z"/></svg>

<?xml version="1.0" encoding="utf-8" ?>
<svg baseProfile="tiny" height="100%" version="1.2" width="100%" xmlns="http://www.w3.org/2000/svg" xmlns:ev="http://www.w3.org/2001/xml-events" xmlns:xlink="http://www.w3.org/1999/xlink"><defs /><g><path d="M116 -14Q69 -14 77 16L351 970Q355 984 367.0 991.0Q379 998 401 998H581Q682 998 749.5 974.0Q817 950 851.0 901.5Q885 853 885 778Q885 694 854.0 630.5Q823 567 765.0 523.0Q707 479 627.5 451.0Q548 423 452 411Q409 405 363.0 402.5Q317 400 275 399L165 14Q160 0 149.5 -7.0Q139 -14 116 -14ZM298 479Q324 479 354.0 480.5Q384 482 414.5 485.0Q445 488 473 491Q575 508 647.0 543.0Q719 578 757.0 634.0Q795 690 795 768Q795 822 771.0 854.5Q747 887 697.5 902.5Q648 918 569 918H424Z" transform="translate(0.0, 72) scale(0.072, -0.072)" /><path d="M-138 -17Q-157 -17 -163.5 -5.5Q-170 6 -166.5 20.5Q-163 35 -151.0 46.5Q-139 58 -122 58Q-90 58 -51.5 77.0Q-13 96 30.5 130.0Q74 164 119.0 210.0Q164 256 208.5 311.0Q253 366 293.5 425.0Q334 484 368.5 545.0Q403 606 429.0 665.0Q455 724 469.5 777.5Q484 831 484 876Q484 891 497.0 898.5Q510 906 527.5 906.0Q545 906 558.0 898.5Q571 891 571 876Q571 829 554.5 771.5Q538 714 508.5 650.5Q479 587 439.5 520.5Q400 454 353.0 388.5Q306 323 254.5 263.0Q203 203 150.5 152.0Q98 101 46.5 63.0Q-5 25 -52.0 4.0Q-99 -17 -138 -17ZM177 -17Q136 -17 115.0 -2.0Q94 13 87.0 37.5Q80 62 84.0 92.5Q88 123 97 155L294 847Q320 937 360.5 978.0Q401 1019 460 1019Q495 1019 519.5 1001.5Q544 984 557.5 952.0Q571 920 571 876Q571 857 558.0 848.0Q545 839 527.5 839.0Q510 839 497.0 848.0Q484 857 484 876Q484 895 480.0 908.5Q476 922 468.0 929.0Q460 936 447 936Q434 936 422.5 926.5Q411 917 400.0 895.5Q389 874 378 835L172 113Q168 100 167.0 87.5Q166 75 170.5 67.0Q175 59 189 59Q202 59 214.0 65.5Q226 72 235.5 83.0Q245 94 253 105Q259 113 269.0 116.0Q279 119 294 109Q310 99 310.5 88.5Q311 78 306 67Q296 50 277.5 30.0Q259 10 234.0 -3.5Q209 -17 177 -17Z" transform="translate(55.943999999999996, 72) scale(0.072, -0.072)" /><path d="M187 -17Q143 -17 111.0 3.5Q79 24 61.5 62.5Q44 101 44 155Q44 201 56.0 251.0Q68 301 93.0 348.5Q118 396 155.0 434.5Q192 473 242.5 496.0Q293 519 356 519Q389 519 421.5 509.0Q454 499 482 482L483 486Q488 504 498.0 509.5Q508 515 527 515Q557 515 565.5 506.0Q574 497 569 477L463 113Q460 100 458.5 87.5Q457 75 462.0 67.0Q467 59 481 59Q494 59 505.5 65.5Q517 72 526.5 83.0Q536 94 544 105Q551 113 561.0 116.0Q571 119 585 109Q601 99 602.5 88.5Q604 78 598 67Q588 50 569.5 30.0Q551 10 526.0 -3.5Q501 -17 469 -17Q440 -17 421.0 -8.0Q402 1 392.0 15.5Q382 30 378.5 49.0Q375 68 376 88Q377 91 377.0 94.0Q377 97 377 100Q344 55 310.0 29.5Q276 4 244.5 -6.5Q213 -17 187 -17ZM134 165Q134 132 143.0 109.5Q152 87 170.0 75.0Q188 63 214 63Q248 63 282.0 85.0Q316 107 350.0 148.5Q384 190 415 249L462 415Q434 429 409.0 434.5Q384 440 358 440Q310 440 273.5 422.0Q237 404 210.5 374.0Q184 344 167.0 307.5Q150 271 142.0 234.0Q134 197 134 165Z" transform="translate(84.312, 72) scale(0.072, -0.072)" /><path d="M434 -10Q452 2 471.0 12.5Q490 23 507.5 33.0Q525 43 541.5 51.0Q558 59 572 65Q587 72 596.0 65.0Q605 58 608.5 44.5Q612 31 608.0 17.5Q604 4 592 -2Q574 -11 553.5 -22.5Q533 -34 511.5 -46.0Q490 -58 468.5 -71.0Q447 -84 426 -96ZM157 -519Q97 -519 61.0 -485.5Q25 -452 25 -399Q25 -356 42.5 -318.0Q60 -280 91.5 -244.5Q123 -209 167.5 -174.5Q212 -140 267 -106Q286 -95 303.5 -84.0Q321 -73 339.5 -62.0Q358 -51 376 -40L415 99Q393 71 369.0 49.0Q345 27 320.0 12.5Q295 -2 269.0 -9.5Q243 -17 217 -17Q164 -17 131.5 6.5Q99 30 90.5 74.0Q82 118 99 179L161 396Q167 418 161.0 429.5Q155 441 138 441Q124 441 111.0 432.5Q98 424 85.0 407.0Q72 390 55 362Q47 349 39.0 343.5Q31 338 12 341Q-7 346 -11.5 358.0Q-16 370 -9 386Q7 423 30.0 452.5Q53 482 83.0 499.0Q113 516 148 516Q182 516 203.5 504.5Q225 493 236.0 472.5Q247 452 247.5 424.0Q248 396 239 364L185 174Q175 136 177.0 111.0Q179 86 195.5 74.0Q212 62 246 62Q273 62 302.0 76.5Q331 91 360.5 118.5Q390 146 416.5 183.5Q443 221 465 267L526 484Q532 503 541.5 509.0Q551 515 571 515Q601 515 609.5 506.0Q618 497 612 477L401 -252Q380 -324 356.0 -374.5Q332 -425 302.5 -457.0Q273 -489 237.0 -504.0Q201 -519 157 -519ZM170 -442Q201 -442 228.0 -420.5Q255 -399 277.5 -356.0Q300 -313 316 -250L347 -140Q336 -146 326.0 -152.5Q316 -159 306.5 -165.0Q297 -171 288 -177Q247 -205 214.5 -231.5Q182 -258 159.5 -283.0Q137 -308 125.5 -333.5Q114 -359 114 -386Q114 -404 120.5 -416.5Q127 -429 140.0 -435.5Q153 -442 170 -442Z" transform="translate(129.096, 72) scale(0.072, -0.072)" /><path d="M191 -19Q144 -19 116.0 -1.5Q88 16 76.0 45.5Q64 75 64.5 111.0Q65 147 76 184L162 484Q168 502 177.0 508.5Q186 515 207 515Q237 515 245.5 506.0Q254 497 248 478L163 180Q155 152 153.0 124.5Q151 97 164.0 78.5Q177 60 212 60Q233 60 255.5 70.0Q278 80 299.0 99.0Q320 118 339.0 145.0Q358 172 373 207L453 484Q459 502 468.0 508.5Q477 515 498 515Q529 515 536.5 506.0Q544 497 539 479L470 231Q462 200 454.5 169.5Q447 139 447.0 114.5Q447 90 461.0 75.5Q475 61 509 61Q545 61 576.0 79.5Q607 98 631.5 129.5Q656 161 674.0 199.5Q692 238 701.5 279.0Q711 320 711 358Q711 377 709.5 395.0Q708 413 705.0 430.5Q702 448 696 463Q692 482 696.0 494.0Q700 506 711.0 512.5Q722 519 739 519Q756 519 766.0 508.0Q776 497 782 472Q788 456 791.5 438.0Q795 420 797.0 400.0Q799 380 799 359Q799 314 786.0 263.0Q773 212 747.5 162.0Q722 112 685.5 71.0Q649 30 601.5 5.5Q554 -19 496 -19Q453 -19 424.5 -6.0Q396 7 381.5 29.5Q367 52 362 81Q341 49 315.0 26.5Q289 4 257.5 -7.5Q226 -19 191 -19Z" transform="translate(176.976, 72) scale(0.072, -0.072)" /><path d="M-139 -17Q-158 -17 -164.5 -5.5Q-171 6 -168.0 20.5Q-165 35 -153.0 46.5Q-141 58 -122 58Q-88 58 -53.5 81.5Q-19 105 16.0 152.5Q51 200 86.5 272.0Q122 344 157 440L215 416Q171 295 130.0 212.0Q89 129 47.0 78.5Q5 28 -40.5 5.5Q-86 -17 -139 -17ZM414 -17Q377 -17 355.5 -5.0Q334 7 325.5 27.0Q317 47 318.0 72.0Q319 97 326 125Q333 149 344.5 180.0Q356 211 369.5 245.5Q383 280 396.0 314.0Q409 348 416 378Q423 408 415.0 418.5Q407 429 389 429Q364 429 332.5 419.0Q301 409 268.0 399.5Q235 390 206 390Q185 390 170.0 405.0Q155 420 147.0 443.0Q139 466 139 490Q139 514 146.5 535.0Q154 556 169.0 570.0Q184 584 207 584Q232 584 243.0 569.0Q254 554 254 534Q254 519 249.0 501.5Q244 484 235 469Q252 469 282.5 480.0Q313 491 350.0 502.0Q387 513 422 513Q452 513 474.0 499.5Q496 486 504.0 455.0Q512 424 500 372Q493 344 480.5 310.0Q468 276 454.0 240.0Q440 204 427.0 170.0Q414 136 405 106Q399 81 404.5 70.0Q410 59 426 59Q439 59 450.5 65.5Q462 72 472.0 83.0Q482 94 489 105Q496 113 506.0 116.0Q516 119 530 109Q546 99 547.0 88.5Q548 78 543 67Q533 50 514.5 30.0Q496 10 471.0 -3.5Q446 -17 414 -17Z" transform="translate(238.752, 72) scale(0.072, -0.072)" /><path d="M148 -17Q85 -17 63.5 26.0Q42 69 64 145L160 484Q166 503 175.5 509.0Q185 515 205 515Q235 515 243.5 506.0Q252 497 246 477L143 117Q135 88 139.5 73.5Q144 59 162 59Q175 59 186.5 65.5Q198 72 207.5 83.0Q217 94 225 105Q232 113 242.0 116.0Q252 119 266 109Q282 99 283.0 88.5Q284 78 278 67Q266 46 246.5 26.5Q227 7 202.0 -5.0Q177 -17 148 -17ZM260 669Q239 669 224.5 682.5Q210 696 210 721Q210 749 227.5 772.0Q245 795 281 795Q302 795 316.5 782.0Q331 769 331 743Q331 715 314.0 692.0Q297 669 260 669Z" transform="translate(279.648, 72) scale(0.072, -0.072)" /><path d="M175 -17Q123 -17 100.0 7.5Q77 32 76.5 72.5Q76 113 90 164L162 420H84Q72 420 68.0 430.0Q64 440 68 460Q74 480 83.0 490.0Q92 500 104 500H185L242 699Q248 718 257.5 724.0Q267 730 287 730Q317 730 326.0 721.0Q335 712 329 692L274 500H400Q411 500 415.5 490.5Q420 481 415 460Q410 441 400.5 430.5Q391 420 379 420H251L167 128Q157 93 163.0 76.0Q169 59 190 59Q219 59 242.0 78.0Q265 97 282 118Q289 127 299.5 130.0Q310 133 325 122Q341 113 342.0 102.5Q343 92 337 82Q324 60 302.0 37.0Q280 14 248.5 -1.5Q217 -17 175 -17Z" transform="translate(301.24800000000005, 72) scale(0.072, -0.072)" /><path d="M254 -18Q218 -18 186.5 -5.5Q155 7 129.0 29.5Q103 52 84.5 83.0Q66 114 56.0 152.0Q46 190 46 232Q46 270 55.0 310.0Q64 350 82.5 387.5Q101 425 128.0 454.5Q155 484 191.5 501.5Q228 519 274 519Q315 519 343.0 503.0Q371 487 385.5 459.5Q400 432 400 397Q400 342 374.0 291.0Q348 240 306.0 195.0Q264 150 215 114Q162 75 102.0 45.5Q42 16 -17.5 -0.5Q-77 -17 -129 -17Q-143 -17 -149.5 -5.5Q-156 6 -153.5 20.5Q-151 35 -139.5 46.5Q-128 58 -107 58Q-63 58 -14.0 73.5Q35 89 83.0 115.5Q131 142 173 175Q207 202 238.5 235.5Q270 269 290.0 306.0Q310 343 310 379Q310 409 297.0 424.0Q284 439 257 439Q227 439 204.5 419.0Q182 399 166.5 368.0Q151 337 143.0 302.0Q135 267 135 236Q135 198 145.5 166.0Q156 134 175.0 110.5Q194 87 218.0 74.5Q242 62 269 62Q294 62 318.0 71.5Q342 81 365.0 98.0Q388 115 409 134Q423 147 436.0 145.0Q449 143 461 132Q474 120 476.0 106.5Q478 93 465 80Q433 45 398.0 23.0Q363 1 327.0 -8.5Q291 -18 254 -18Z" transform="translate(329.184, 72) scale(0.072, -0.072)" /><path d="M252 -17Q213 -17 180.0 0.0Q147 17 124.5 44.5Q102 72 92 101Q85 120 89.5 132.5Q94 145 111 152Q129 159 140.0 154.5Q151 150 162 133Q174 111 189.0 96.5Q204 82 221.0 75.0Q238 68 258 68Q296 68 321.5 97.5Q347 127 369 204L574 918H441Q387 918 349.0 906.0Q311 894 285.5 870.5Q260 847 247 809Q239 791 226.0 786.0Q213 781 191 785Q178 788 172.5 797.5Q167 807 172 825Q182 864 206.0 895.5Q230 927 265.0 950.0Q300 973 346.5 985.5Q393 998 448 998H984Q999 998 1002.5 989.5Q1006 981 999 958Q993 936 984.5 927.0Q976 918 961 918H663L460 208Q439 136 411.0 85.5Q383 35 344.0 9.0Q305 -17 252 -17Z" transform="translate(382.75200000000007, 72) scale(0.072, -0.072)" /><path d="M568 -17Q525 -17 481.5 -8.5Q438 0 394.5 11.0Q351 22 310.0 30.5Q269 39 231 38Q200 38 173.0 32.5Q146 27 120.5 16.5Q95 6 67 -7Q51 -15 35.5 -15.0Q20 -15 11 -2Q2 10 4.5 20.0Q7 30 22 45L805 888Q795 886 784.5 885.0Q774 884 761 884Q728 884 696.5 891.5Q665 899 634.0 908.0Q603 917 571.5 924.5Q540 932 506 932Q473 932 441.0 921.5Q409 911 378.0 891.5Q347 872 318 844Q303 829 289.5 829.0Q276 829 262 843Q247 857 247.5 870.0Q248 883 263 899Q301 936 339.0 962.0Q377 988 419.0 1002.0Q461 1016 511 1016Q551 1016 586.0 1008.5Q621 1001 653.5 990.5Q686 980 718.5 972.5Q751 965 787 965Q829 965 861.0 972.5Q893 980 927 997Q940 1004 951.0 1003.5Q962 1003 972 992Q984 981 982.5 969.5Q981 958 960 936L199 114Q214 118 230.5 120.0Q247 122 265 122Q305 122 344.5 114.0Q384 106 424.0 95.0Q464 84 503.5 75.0Q543 66 582 66Q631 66 670.0 85.0Q709 104 741.0 140.5Q773 177 799 229Q806 242 818.5 245.5Q831 249 849 241Q869 233 874.0 221.0Q879 209 871 194Q837 124 793.5 77.0Q750 30 695.0 6.5Q640 -17 568 -17Z" transform="translate(440.3520000000001, 72) scale(0.072, -0.072)" /></g></svg>
